X:7 
T:GB/7e/7 Molecatcher 
%%VWML:GB-7e-7-0
F:http://www.vwml.org/record/GB/7e/7
C:Transcribed by Simon Furey and Lewis Jones
L:1/8
M:6/8
I:linebreak $
K:Fdor
c | FF F cde | dc d B2 F | AG F EEG | BA G !fermata!F2 d | ec d e2 c/d/ |$ ec d e2 e | cc c fff | ec d e3 | dc d B3 | cF F EFG | BAG F2 |]

